Obsidian/actions/22s/kstars_deepsky.svg

<svg height="22" viewBox="0 0 22 22" width="22" xmlns="http://www.w3.org/2000/svg"><path d="m6.5 0a.5.5 0 0 0 -.5.5.5.5 0 0 0 .5.5.5.5 0 0 0 .5-.5.5.5 0 0 0 -.5-.5zm3 0a.5.5 0 0 0 -.5.5.5.5 0 0 0 .5.5.5.5 0 0 0 .5-.5.5.5 0 0 0 -.5-.5zm-5 1a.5.5 0 0 0 -.5.5.5.5 0 0 0 .5.5.5.5 0 0 0 .5-.5.5.5 0 0 0 -.5-.5zm7 0a.5.5 0 0 0 -.5.5.5.5 0 0 0 .5.5.5.5 0 0 0 .5-.5.5.5 0 0 0 -.5-.5zm-9 1a.5.5 0 0 0 -.5.5.5.5 0 0 0 .5.5.5.5 0 0 0 .5-.5.5.5 0 0 0 -.5-.5zm11 0a.5.5 0 0 0 -.5.5.5.5 0 0 0 .5.5.5.5 0 0 0 .5-.5.5.5 0 0 0 -.5-.5zm-12 2a.5.5 0 0 0 -.5.5.5.5 0 0 0 .5.5.5.5 0 0 0 .5-.5.5.5 0 0 0 -.5-.5zm13 0a.5.5 0 0 0 -.5.5.5.5 0 0 0 .5.5.5.5 0 0 0 .5-.5.5.5 0 0 0 -.5-.5zm-14 2a.5.5 0 0 0 -.5.5.5.5 0 0 0 .5.5.5.5 0 0 0 .5-.5.5.5 0 0 0 -.5-.5zm15 0a.5.5 0 0 0 -.5.5.5.5 0 0 0 .5.5.5.5 0 0 0 .5-.5.5.5 0 0 0 -.5-.5zm-15 3a.5.5 0 0 0 -.5.5.5.5 0 0 0 .5.5.5.5 0 0 0 .5-.5.5.5 0 0 0 -.5-.5zm15 0a.5.5 0 0 0 -.5.5.5.5 0 0 0 .5.5.5.5 0 0 0 .5-.5.5.5 0 0 0 -.5-.5zm-14 2a.5.5 0 0 0 -.5.5.5.5 0 0 0 .5.5.5.5 0 0 0 .5-.5.5.5 0 0 0 -.5-.5zm13 0a.5.5 0 0 0 -.5.5.5.5 0 0 0 .5.5.5.5 0 0 0 .5-.5.5.5 0 0 0 -.5-.5zm-12 2a.5.5 0 0 0 -.5.5.5.5 0 0 0 .5.5.5.5 0 0 0 .5-.5.5.5 0 0 0 -.5-.5zm11 0a.5.5 0 0 0 -.5.5.5.5 0 0 0 .5.5.5.5 0 0 0 .5-.5.5.5 0 0 0 -.5-.5zm-9 1a.5.5 0 0 0 -.5.5.5.5 0 0 0 .5.5.5.5 0 0 0 .5-.5.5.5 0 0 0 -.5-.5zm7 0a.5.5 0 0 0 -.5.5.5.5 0 0 0 .5.5.5.5 0 0 0 .5-.5.5.5 0 0 0 -.5-.5zm-5 1a.5.5 0 0 0 -.5.5.5.5 0 0 0 .5.5.5.5 0 0 0 .5-.5.5.5 0 0 0 -.5-.5zm3 0a.5.5 0 0 0 -.5.5.5.5 0 0 0 .5.5.5.5 0 0 0 .5-.5.5.5 0 0 0 -.5-.5z" fill="#bebebe" transform="translate(3 3)"/></svg>

<svg xmlns="http://www.w3.org/2000/svg" width="22" height="22" viewBox="0 0 22 22">
 <defs>
  <style id="current-color-scheme" type="text/css">
   .ColorScheme-Text { color:#bebebe; } .ColorScheme-Highlight { color:#4285f4; }
  </style>
 </defs>
 <path style="fill:currentColor" class="ColorScheme-Text" d="M 6.5 0 A 0.5 0.5 0 0 0 6 0.5 A 0.5 0.5 0 0 0 6.5 1 A 0.5 0.5 0 0 0 7 0.5 A 0.5 0.5 0 0 0 6.5 0 z M 9.5 0 A 0.5 0.5 0 0 0 9 0.5 A 0.5 0.5 0 0 0 9.5 1 A 0.5 0.5 0 0 0 10 0.5 A 0.5 0.5 0 0 0 9.5 0 z M 4.5 1 A 0.5 0.5 0 0 0 4 1.5 A 0.5 0.5 0 0 0 4.5 2 A 0.5 0.5 0 0 0 5 1.5 A 0.5 0.5 0 0 0 4.5 1 z M 11.5 1 A 0.5 0.5 0 0 0 11 1.5 A 0.5 0.5 0 0 0 11.5 2 A 0.5 0.5 0 0 0 12 1.5 A 0.5 0.5 0 0 0 11.5 1 z M 2.5 2 A 0.5 0.5 0 0 0 2 2.5 A 0.5 0.5 0 0 0 2.5 3 A 0.5 0.5 0 0 0 3 2.5 A 0.5 0.5 0 0 0 2.5 2 z M 13.5 2 A 0.5 0.5 0 0 0 13 2.5 A 0.5 0.5 0 0 0 13.5 3 A 0.5 0.5 0 0 0 14 2.5 A 0.5 0.5 0 0 0 13.5 2 z M 1.5 4 A 0.5 0.5 0 0 0 1 4.5 A 0.5 0.5 0 0 0 1.5 5 A 0.5 0.5 0 0 0 2 4.5 A 0.5 0.5 0 0 0 1.5 4 z M 14.5 4 A 0.5 0.5 0 0 0 14 4.5 A 0.5 0.5 0 0 0 14.5 5 A 0.5 0.5 0 0 0 15 4.5 A 0.5 0.5 0 0 0 14.5 4 z M 0.5 6 A 0.5 0.5 0 0 0 0 6.5 A 0.5 0.5 0 0 0 0.5 7 A 0.5 0.5 0 0 0 1 6.5 A 0.5 0.5 0 0 0 0.5 6 z M 15.5 6 A 0.5 0.5 0 0 0 15 6.5 A 0.5 0.5 0 0 0 15.5 7 A 0.5 0.5 0 0 0 16 6.5 A 0.5 0.5 0 0 0 15.5 6 z M 0.5 9 A 0.5 0.5 0 0 0 0 9.5 A 0.5 0.5 0 0 0 0.5 10 A 0.5 0.5 0 0 0 1 9.5 A 0.5 0.5 0 0 0 0.5 9 z M 15.5 9 A 0.5 0.5 0 0 0 15 9.5 A 0.5 0.5 0 0 0 15.5 10 A 0.5 0.5 0 0 0 16 9.5 A 0.5 0.5 0 0 0 15.5 9 z M 1.5 11 A 0.5 0.5 0 0 0 1 11.5 A 0.5 0.5 0 0 0 1.5 12 A 0.5 0.5 0 0 0 2 11.5 A 0.5 0.5 0 0 0 1.5 11 z M 14.5 11 A 0.5 0.5 0 0 0 14 11.5 A 0.5 0.5 0 0 0 14.5 12 A 0.5 0.5 0 0 0 15 11.5 A 0.5 0.5 0 0 0 14.5 11 z M 2.5 13 A 0.5 0.5 0 0 0 2 13.5 A 0.5 0.5 0 0 0 2.5 14 A 0.5 0.5 0 0 0 3 13.5 A 0.5 0.5 0 0 0 2.5 13 z M 13.5 13 A 0.5 0.5 0 0 0 13 13.5 A 0.5 0.5 0 0 0 13.5 14 A 0.5 0.5 0 0 0 14 13.5 A 0.5 0.5 0 0 0 13.5 13 z M 4.5 14 A 0.5 0.5 0 0 0 4 14.5 A 0.5 0.5 0 0 0 4.5 15 A 0.5 0.5 0 0 0 5 14.5 A 0.5 0.5 0 0 0 4.5 14 z M 11.5 14 A 0.5 0.5 0 0 0 11 14.5 A 0.5 0.5 0 0 0 11.5 15 A 0.5 0.5 0 0 0 12 14.5 A 0.5 0.5 0 0 0 11.5 14 z M 6.5 15 A 0.5 0.5 0 0 0 6 15.5 A 0.5 0.5 0 0 0 6.5 16 A 0.5 0.5 0 0 0 7 15.5 A 0.5 0.5 0 0 0 6.5 15 z M 9.5 15 A 0.5 0.5 0 0 0 9 15.5 A 0.5 0.5 0 0 0 9.5 16 A 0.5 0.5 0 0 0 10 15.5 A 0.5 0.5 0 0 0 9.5 15 z" transform="translate(3 3)"/>
</svg>
